X:1
T:Title
%%score { 1 | ( 2 3 ) }
L:1/8
M:3/4
K:C
V:1 treble nm="Grand Piano"
V:2 bass 
V:3 bass 
V:1
 z2 z2[Q:1/4=100] [CE][DF] | [EG]2 [Ec]2 [CE][DF] | [EG]2 [Ec]2 Bc | d3 c [DB][Fd] |[M:2/4] [Ec]4 | %5
[M:1/4] [CE][DF] |[M:3/4] [EG]2 [Ec]2 [CE][DF] | [EG]2 [Ec]2 [Fd][Ec] | B2 G2 A^F | %9
[M:2/4] [B,DG]4 |[M:1/4] [EG][EG] |[M:3/4] A3 c [CGB][CFA] | [CEG]4 [G,CE][G,EG] | [Ec]2 G2 FE | %14
[M:2/4] [B,D]4 |[M:1/4] [CE][DF] |[M:3/4] [EG]2 [Ec]2 [CE][DF] | [EG]2 [Ec]2 Bc | dc e2 [Fd]2 | %19
[M:2/4] [Ec]4 |] %20
V:2
 z2 z2 [C,G,][C,G,] | [C,C]2 [C,G,]2 [C,G,][C,G,] | [C,C]2 [C,G,]2[K:treble] [G,D][G,E] | %3
 [G,F]3[K:bass] [G,E] [G,,G,][G,,G,] |[M:2/4] [C,G,]4 |[M:1/4] [C,G,][C,G,] | %6
[M:3/4] [C,C]2 [C,G,]2 [C,G,][C,G,] | [C,C]2 [C,G,]2 [B,,G,][C,G,] | %8
 [D,G,D]2 [D,B,D]2 [D,CD][D,CD] |[M:2/4] G,,4 |[M:1/4] [C,C][C,C] |[M:3/4] F4 z2 | C,4 C,C, | %13
 [C,G,]2 [E,C]2 [D,G,B,][C,G,C] |[M:2/4] [G,,G,]4 |[M:1/4] [C,G,][C,G,] | %16
[M:3/4] [C,C]2 [C,G,]2 [C,G,][C,G,] | [C,C]2 [C,G,]2[K:treble] [G,D][G,E] | %18
 [G,B,F][G,CE] [G,G]2[K:bass] [G,,G,]2 |[M:2/4] [C,G,]4 |] %20
V:3
 x6 | x6 | x4[K:treble] x2 | x3[K:bass] x3 |[M:2/4] x4 |[M:1/4] x2 |[M:3/4] x6 | x6 | x6 | %9
[M:2/4] x4 |[M:1/4] x2 |[M:3/4] [F,C]3- [F,CA] F,F, | x6 | x6 |[M:2/4] x4 |[M:1/4] x2 |[M:3/4] x6 | %17
 x4[K:treble] x2 | x4[K:bass] x2 |[M:2/4] x4 |] %20

